X:32
T:French Polka
M:4/4
L:1/4
R:Polka
K:C % transposed from G
G A/B/ cc | B/c/d/B/ c2 | d/e/f/d/ e c | d/e/f/d/ e c |\
G A/B/ cc | B/c/d/B/c2 | d/e/f/d/ e g | g/f/e/d/ c2 :|
|: g e c/e/g/e/ | c/e/g/e/ fd | f d B/d/f/d/ | B/d /f/d/ ec |\
g e c/e/g/e/ | c/e/g/e/ fd | f d B g | g/f/e/d/ c2 :|

